packages/ui-icons/svg/Solid/text-color.svg

<svg viewBox="0 0 1920 1920" version="1.1" xmlns="http://www.w3.org/2000/svg">
    <path d="M74 1920L1846.30769 1920 1846.30769 1476.92308 74 1476.92308zM1109.75138.0590769231L1619.14215 1227.08677 1482.67446 1283.65292 1317.70215 886.065231 602.576 886.065231 437.603692 1283.65292 301.136 1227.08677 810.526769.0590769231 1109.75138.0590769231zM1011.09292 147.751385L909.332923 147.751385 663.868308 738.372923 1256.40985 738.372923 1011.09292 147.751385z" stroke="none" stroke-width="1" fill-rule="evenodd"/>
</svg>

<svg viewBox="0 0 1920 1920" xmlns="http://www.w3.org/2000/svg">
    <path d="M74 1920h1772.308v-443.077H74zM1109.751.06l509.391 1227.027-136.468 56.566-164.972-397.588H602.576l-164.972 397.588-136.468-56.566L810.526.059h299.225zm-98.658 147.691h-101.76L663.868 738.373h592.542L1011.093 147.75z" fill-rule="evenodd"/>
</svg>
